X:51
T:Cock and the Hen, The
R:slip jig
H:Version 2: Roche Collection 252
H:Also in F#m, see #14
Z:id:hn-slipjig-51
M:9/8
L:1/8
K:Bm
~B3 BdB fef | ~B3 BdB cBA | ~B3 BdB f2g | afd edB dBA :|
|: afd def g2b | afd def edB | afd def g2e | fed edB dBA :|
P:version 2
|: BcB {c}BAB g2A | BcB {c}BAB dBA | BcB {c}BAB g2e | fed edB dBA :||: afd def g2e |
afd def gfe |1 afd def g2e | fed edB dBA :|2 a2a agf g2e | fed edB dBA ||

